X: 1301
T: Sweet Biddy of Ballyvourney
R:Reel
N:Collected by F. O'Neill
B:O'Neill's 1301
Z:Transcribed by Trish O'Neil
M:C|
L:1/8
K:G
G2(BG) Bdde|fdgd fdcA|G2BG Bdde|fdcA AGG2:|
Tg2(dg) gbag|f2(de) fgaf|g2(dg) gbag|fdcA AGG2|
g2dgg2de|fgag fdef|dfgab2(ag)|fdcA AGG2|]


